papirus/16x16/apps/latexila.svg

<?xml version="1.0" encoding="UTF-8" standalone="no"?>
<!-- Created with Inkscape (http://www.inkscape.org/) -->

<svg
   xmlns:dc="http://purl.org/dc/elements/1.1/"
   xmlns:cc="http://creativecommons.org/ns#"
   xmlns:rdf="http://www.w3.org/1999/02/22-rdf-syntax-ns#"
   xmlns:svg="http://www.w3.org/2000/svg"
   xmlns="http://www.w3.org/2000/svg"
   xmlns:sodipodi="http://sodipodi.sourceforge.net/DTD/sodipodi-0.dtd"
   xmlns:inkscape="http://www.inkscape.org/namespaces/inkscape"
   width="16"
   height="16"
   viewBox="0 0 16 16"
   id="svg4239"
   version="1.1"
   inkscape:version="0.91 r13725"
   sodipodi:docname="latexila.svg">
  <defs
     id="defs4241" />
  <sodipodi:namedview
     id="base"
     pagecolor="#ffffff"
     bordercolor="#666666"
     borderopacity="1.0"
     inkscape:pageopacity="0.0"
     inkscape:pageshadow="2"
     inkscape:zoom="1"
     inkscape:cx="14.74829"
     inkscape:cy="10.435284"
     inkscape:document-units="px"
     inkscape:current-layer="layer1"
     showgrid="false"
     units="px"
     showguides="false"
     inkscape:window-width="1535"
     inkscape:window-height="876"
     inkscape:window-x="65"
     inkscape:window-y="24"
     inkscape:window-maximized="1" />
  <metadata
     id="metadata4244">
    <rdf:RDF>
      <cc:Work
         rdf:about="">
        <dc:format>image/svg+xml</dc:format>
        <dc:type
           rdf:resource="http://purl.org/dc/dcmitype/StillImage" />
        <dc:title></dc:title>
      </cc:Work>
    </rdf:RDF>
  </metadata>
  <g
     inkscape:label="Layer 1"
     inkscape:groupmode="layer"
     id="layer1"
     transform="translate(0,-1036.3622)">
    <circle
       style="opacity:1;fill:#00b88a;fill-opacity:1;stroke:none;stroke-width:4;stroke-linecap:round;stroke-linejoin:round;stroke-miterlimit:4;stroke-dasharray:none;stroke-opacity:1"
       id="path4847"
       cx="8"
       cy="1044.3622"
       r="8" />
    <path
       style="opacity:1;fill:#fff763;fill-opacity:1;stroke:none;stroke-width:4;stroke-linecap:round;stroke-linejoin:round;stroke-miterlimit:4;stroke-dasharray:none;stroke-opacity:1"
       d="M 8 2 A 6.0000002 6.0000002 0 0 0 2 8 A 6.0000002 6.0000002 0 0 0 8 14 A 6.0000002 6.0000002 0 0 0 14 8 A 6.0000002 6.0000002 0 0 0 8 2 z M 7 3 L 8 3 L 9 3 L 8.5 5 L 8 7 L 7.5 5 L 7 3 z M 5.171875 3.7578125 L 6.2324219 5.5253906 L 7.2929688 7.2929688 L 5.5253906 6.2324219 L 3.7578125 5.171875 L 4.4648438 4.4648438 L 5.171875 3.7578125 z M 10.828125 3.7578125 L 11.535156 4.4648438 L 12.242188 5.171875 L 10.474609 6.2324219 L 8.7070312 7.2929688 L 9.7675781 5.5253906 L 10.828125 3.7578125 z M 3 7 L 5 7.5 L 7 8 L 5 8.5 L 3 9 L 3 8 L 3 7 z M 13 7 L 13 8 L 13 9 L 11 8.5 L 9 8 L 11 7.5 L 13 7 z M 7.2929688 8.7070312 L 6.2324219 10.474609 L 5.171875 12.242188 L 4.4648438 11.535156 L 3.7578125 10.828125 L 5.5253906 9.7675781 L 7.2929688 8.7070312 z M 8.7070312 8.7070312 L 10.474609 9.7675781 L 12.242188 10.828125 L 11.535156 11.535156 L 10.828125 12.242188 L 9.7675781 10.474609 L 8.7070312 8.7070312 z M 8 9 L 8.5 11 L 9 13 L 8 13 L 7 13 L 7.5 11 L 8 9 z "
       transform="translate(0,1036.3622)"
       id="path5408" />
  </g>
</svg>

<?xml version="1.0" encoding="UTF-8" standalone="no"?>
<svg id="svg4239" xmlns:rdf="http://www.w3.org/1999/02/22-rdf-syntax-ns#" xmlns="http://www.w3.org/2000/svg" viewBox="0 0 16 16" width="16" version="1.1" xmlns:cc="http://creativecommons.org/ns#" height="16" xmlns:dc="http://purl.org/dc/elements/1.1/">
 <metadata id="metadata4244">
  <rdf:RDF>
   <cc:Work rdf:about="">
    <dc:format>image/svg+xml</dc:format>
    <dc:type rdf:resource="http://purl.org/dc/dcmitype/StillImage"/>
    <dc:title/>
   </cc:Work>
  </rdf:RDF>
 </metadata>
 <g id="layer1" transform="translate(0 -1036.4)">
  <circle id="path4847" cy="1044.4" cx="8" r="8" fill="#00b88a"/>
  <path id="path5408" d="m8 2a6 6 0 0 0 -6 6 6 6 0 0 0 6 6 6 6 0 0 0 6 -6 6 6 0 0 0 -6 -6zm-1 1h1 1l-0.5 2-0.5 2-0.5-2-0.5-2zm-1.8281 0.7578l1.0605 1.7676 1.0606 1.7676-1.7676-1.0606-1.7676-1.0605 0.707-0.7071 0.7071-0.707zm5.6561 0l0.707 0.707 0.707 0.7071-1.767 1.0605-1.768 1.0606 1.0606-1.7676 1.0604-1.7676zm-7.828 3.2422l2 0.5 2 0.5-2 0.5-2 0.5v-1-1zm10 0v1 1l-2-0.5-2-0.5 2-0.5 2-0.5zm-5.707 1.707l-1.0606 1.768-1.0605 1.767-0.7071-0.707-0.707-0.707 1.7676-1.0604 1.7676-1.0606zm1.414 0l1.768 1.0606 1.767 1.0604-0.707 0.707-0.707 0.707-1.0604-1.767-1.0606-1.768zm-0.707 0.293l0.5 2 0.5 2h-1-1l0.5-2 0.5-2z" transform="translate(0 1036.4)" fill="#fff763"/>
 </g>
</svg>
